!!!OTL: 430. Der Verdraengte.
!!!ODT: 1535
!!!ARE: Europa, Mitteleuropa, Deutschland
!!!SCT: E0430
!!!TXL: @@DE
!!!YEM: Copyright 1995, estate of Helmut Schaffrath.
**kern	**text
*ICvox	*
*M4/4	*
*met(c)	*
*k[]	*
*C:	*
!LO:TX:a:t=Mel- 1535	!
{4a	Jch
=1	=1
4a	hätt'
4a	mir
4cc	für-
4cc	-ge-
=2	=2
2b/	-nom-
4a}	-men
{4a	ʒu
=3	=3
4a	die-
4e	-nen
4g	ſte-
4f	-tig-
=4	=4
2e	-lich
4r}	.
{4a	Ein
=5	=5
4a	Ander
4a	hat
4cc	mich
4cc	ver-
=6	=6
2b/	-drun-
4a}	-gen,
{4a	das-
=7	=7
4a	-ſel-
4e	-big
4g	krän-
4f	-ket
=8	=8
2e	mich.
4r}	.
{4cc	Be-
=9	=9
4cc	-trübt
4cc	iſt
8bL	mir
8ccJ	.
4dd	mein
=10	=10
2a	Her-
4g}	-ʒe,
{4cc	das
=11	=11
4b	ſie
4cc	muß
8ddL	fah-
8ccJ	.
4b	-ren
=12	=12
2cc	lan;
4r}	.
{4cc	drum
=13	=13
4dd	ſie
4dd	mich
4ee	hat
4dd	ver-
=14	=14
(4cc	-ko-
8b/L	.
8aJ	.
2b/)	.
=15	=15
2a	-ren
4r}	.
{4b	um
=16	=16
4cc	ei-
4g	-nen
4a	an-
4f	-dern
=17	=17
2.e;}	Mann.
==	==
!!!AGN: Liebes - Lied
!!!ONB: ESAC (Essen Associative Code) Database: ERK1
!!!AMT: simple quadruple
!!!AIN: vox
!!!EED: Helmut Schaffrath
!!!EEV: 1.0
!!!GTL: Liebeslieder [Alte (aus dem 13. bis 17. Jahrh.) mit ihrem jungen Nachwuchs]
!!!URL-scan: https://rosdok.uni-rostock.de/mcrviewer/recordIdentifier/rosdok_ppn745177662/iview2/phys_0255.iview2?x=-778.7160746633431&y=1677.1523402397288&scale=0.3980252647138593&rotation=0&layout=singlePageLayout
!!!ENC: Anna Maria Matuszewska
!!!EEV: 2024/09/12
*-	*-
